X: 10041
T: Dick Gossip's
R: reel
M: 4/4
K: Dmajor
|:gB (3BBB gBaB|gB (3BBB gfed|(3cBA eA fAeA|(3cBA ef gfef|
gB (3BBB gBaB|gB (3BBB gfed|cdef gece|1 eddc d2 ef:|2 eddc d2 AG||
|:F2 AF GFED|DFAF GFED|EDEF GFED|EDEF GBdB|
F2 AF GFED|DFAF GFED|EDEF GEDc,|1 DFEc, D4:|2 fec d4 f||

